svg/bottle_soda_outline.svg

<svg xmlns="http://www.w3.org/2000/svg" viewBox="0 0 24 24"><path d="M14.4 9.58C12.9 7.89 13 4 13 4h1V2h-4v2h1s.1 3.89-1.4 5.58A2 2 0 0 0 9 11v9a2 2 0 0 0 2 2h2a2 2 0 0 0 2-2v-9a2 2 0 0 0-.6-1.42M13 20h-2v-9l.1-.09A6.3 6.3 0 0 0 12 9.5a6.3 6.3 0 0 0 .9 1.41l.1.09Z"/></svg>

<?xml version="1.0" encoding="UTF-8"?><!DOCTYPE svg PUBLIC "-//W3C//DTD SVG 1.1//EN" "http://www.w3.org/Graphics/SVG/1.1/DTD/svg11.dtd"><svg xmlns="http://www.w3.org/2000/svg" xmlns:xlink="http://www.w3.org/1999/xlink" version="1.1" id="mdi-bottle-soda-outline" width="24" height="24" viewBox="0 0 24 24"><path d="M14.4 9.58C12.9 7.89 13 4 13 4H14V2H10V4H11S11.1 7.89 9.6 9.58A2 2 0 0 0 9 11V20A2 2 0 0 0 11 22H13A2 2 0 0 0 15 20V11A2 2 0 0 0 14.4 9.58M13 20H11V11L11.1 10.91A6.26 6.26 0 0 0 12 9.5A6.26 6.26 0 0 0 12.9 10.91L13 11Z" /></svg>
